!!!COM: Palestrina, Giovanni Perluigi da
!!!OPR: Missa Emendemus in melius
!!!OTL: Kyrie
**kern	**kern	**kern	**kern
*Ibass	*Itenor	*Icalto	*Icant
!Bassus	!Tenor	!Altus	!Cantus
*clefF4	*clefGv2	*clefG2	*clefG2
*k[b-]	*k[b-]	*k[b-]	*k[b-]
*G:dor	*G:dor	*G:dor	*G:dor
*M4/2	*M4/2	*M4/2	*M4/2
=1	=1	=1	=1
0r	0G	0r	0r
=2	=2	=2	=2
0r	1B-	0r	0r
.	1c	.	.
=3	=3	=3	=3
0r	2G	0d	0r
.	1B-	.	.
.	4A	.	.
.	4G	.	.
=4	=4	=4	=4
0r	1A	1f	0r
.	2.G	1g	.
.	4A	.	.
=5	=5	=5	=5
0r	4B-	2d	1r
.	4c	.	.
.	2d	1f	.
.	[1c	.	[1g
.	.	4e	.
.	.	4d	.
=6	=6	=6	=6
0r	2c]	2e	1g]
.	4B-	4d	.
.	4A	4c	.
.	1G	2d	1b-
.	.	[2g	.
=7	=7	=7	=7
0r	2.A	2g]	1cc
.	.	2f	.
.	4B-	.	.
.	2c	2e	2g
.	2G	[2g	[2b-
=8	=8	=8	=8
0D	1d	2g]	2b-]
.	.	4f	4a
.	.	4e	4g
.	2r	[1f	[1a
.	[2d	.	.
=9	=9	=9	=9
1F	2d]	1f]	1a]
.	2c	.	.
1G	2B-	2d	1g
.	4A	2e	.
.	4G	.	.
=10	=10	=10	=10
2D	4A	0f	1r
.	4B-	.	.
1F	1A	.	.
.	.	.	2r
4E	4G	.	[2dd
4D	4F	.	.
=11	=11	=11	=11
1E	1G	2r	2dd]
.	.	1g	2cc
1D	2r	.	2b-
.	[2d	2f	4a
.	.	.	4g
=12	=12	=12	=12
1AA	2d]	1e	4a
.	.	.	4b-
.	2c	.	2.a
2BB-	[1B-	1d	.
.	.	.	4g
2GG	.	.	2g
=13	=13	=13	=13
0D	2B-]	0d	2f#
.	4A	.	1g
.	4G	.	.
.	2A	.	.
.	2A	.	2f#
=14	=14	=14	=14
0GG	0B	0d	0g
=15	=15	=15	=15
0G	1r	0r	0r
.	[1d	.	.
=16	=16	=16	=16
1F	1d]	0r	0r
1E	1c	.	.
=17	=17	=17	=17
2.D	1B-	0r	0r
4E	.	.	.
4F	2A	.	.
4G	.	.	.
[2A	[2c	.	.
=18	=18	=18	=18
4A]	4c]	0r	0r
4G	4B-	.	.
1G	4B-	.	.
.	8A	.	.
.	8G	.	.
.	1A	.	.
2F#	.	.	.
=19	=19	=19	=19
1.G	1.B-	0g	1r
.	.	.	[1dd
4F	4A	.	.
4E	4G	.	.
=20	=20	=20	=20
1D	1A	1f	1dd]
1AA	2r	1e	1cc
.	2A	.	.
=21	=21	=21	=21
0r	2B-	2.d	1b-
.	2G	.	.
.	.	4e	.
.	1F	4f	2a
.	.	4g	.
.	.	[2a	[2cc
=22	=22	=22	=22
1r	1G	4a]	4cc]
.	.	4g	4b-
.	.	1g	4b-
.	.	.	8a
.	.	.	8g
[1D	1d	.	1a
.	.	4f	.
.	.	4e	.
=23	=23	=23	=23
1D]	2r	4f	1a
.	.	4d	.
.	2.A	2.f	.
1C	.	.	1r
.	4G	4e	.
.	2E	[2e	.
=24	=24	=24	=24
1BB-	2F	4e]	2r
.	.	4d	.
.	2G	2d	1dd
1AA	1A	2f	.
.	.	2e	2cc
=25	=25	=25	=25
1.GG	2.d	2.g	2.b-
.	4c	8f	4a
.	.	8e	.
.	2B-	[1d	2g
2FF#	2A	.	2a
=26	=26	=26	=26
0GG	2.G	0d]	4b-
.	.	.	4a
.	.	.	4g
.	4A	.	4f#
.	1B-	.	1g
=27	=27	=27	=27
0D	0A	0d	0f#
=28	=28	=28	=28
1.D	1.A	1.d	1.f#
2D	2A	2d	2f#
=29	=29	=29	=29
1D	1A	1d	1f#
1GG	1B-	2r	1g
.	.	[2d	.
=30	=30	=30	=30
2.D	4A	2d]	2.f
.	4G	.	.
.	4F	2d	.
4E	4E	.	4g
2F	2D	1d	2a
2G	[2d	.	2b-
=31	=31	=31	=31
1E-	2d]	1G	1g
.	2c	.	.
2.D	2B-	2.d	1r
.	[2A	.	.
4C	.	4e-	.
=32	=32	=32	=32
2D	4A]	2f	0r
.	4B-	.	.
2E-	2G	2g	.
1C	4A	1e-	.
.	4G	.	.
.	[2G	.	.
=33	=33	=33	=33
1D	4G]	2d	1.a
.	4F	.	.
.	1F	1d	.
2.AA	.	.	.
.	4E	[2c	2a
4BB-	4D	.	.
=34	=34	=34	=34
2C	2E	4c]	1a
.	.	4B-	.
2D	1F	1A	.
1BB-	.	.	1d
.	2D	2G	.
=35	=35	=35	=35
[0AA	2E	2.c	2.a
.	1A	.	.
.	.	4d	4b-
.	.	2e	2cc
.	2A	2f	[2dd
=36	=36	=36	=36
1AA]	1A	1e	2dd]
.	.	.	2cc
2r	1D	1d	2b-
[2D	.	.	4a
.	.	.	4g
=37	=37	=37	=37
2D]	2.A	2r	2.f
2D	.	2d	.
.	4B-	.	4g
2C	2c	2e	4a
.	.	.	4g
4BB-	2d	2f	[2b-
4AA	.	.	.
=38	=38	=38	=38
1GG	1B-	2g	4b-]
.	.	.	4a
.	.	2d	1g
1D	1A	1d	.
.	.	.	2f#
=39	=39	=39	=39
0GG	0G	0d	0g
==	==	==	==
*-	*-	*-	*-
!!!CDT: 1525/^1526/-1594/2/2
!!!OCY: Italia
!!!AGN: Mass (Parody)
!!!AST: renaissance, vocal
!!!ASW: Antiphon
!!!PWK: Masses, Book 7
!!!RNB: Cadence finals: D
!!!YOR: Le Opere Complete, v. 23, p. 61
!!!YOO: Rome, Italy: Fratelli Scalera
!!!END: 1992//
!!!EED: John Miller
!!!YEC: Copyright 2000, John Miller
!!!YEN: United States of America
!!!YEM: Rights to all derivative electronic formats reserved.
!!!YEM: Refer to licensing agreement for further details.
!!!YEM: This file must be accompanied by the licensing agreement.
!!!YEM: A copy of the licensing agreement may be found at http://www.music-cog.ohio-state.edu/HumdrumDatabases/Palestrina/license.txt
!!!EMD: converted to Humdrum by Bret Aarden
